openmetadata-ui/src/main/resources/ui/src/assets/svg/ic-edit-lineage-colored.svg

<svg xmlns="http://www.w3.org/2000/svg" width="18" height="18" viewBox="0 0 18 18" fill="none">
<path fill-rule="evenodd" clip-rule="evenodd" d="M15.5391 1.01707e-05C16.1919 -6.51644e-05 16.818 0.259238 17.2795 0.720891C18.2405 1.68198 18.2404 3.24013 17.2793 4.20111L8.81153 12.6688C8.74098 12.7395 8.65491 12.7928 8.56018 12.8244L4.70302 14.1101C4.63748 14.1317 4.56889 14.1428 4.49988 14.1429C4.43103 14.1428 4.36258 14.1317 4.29723 14.1099C3.96037 13.9978 3.77825 13.6337 3.89046 13.2969L5.17617 9.43972C5.20784 9.34518 5.26084 9.25914 5.33109 9.18836L13.7989 0.721306C14.2592 0.257882 14.8859 -0.00187321 15.5391 1.01707e-05ZM8.0131 11.6499L16.3703 3.29272C16.5912 3.07259 16.715 2.77336 16.7142 2.46151C16.7132 2.15132 16.5898 1.85408 16.3707 1.63452C15.9119 1.1749 15.1674 1.17414 14.7078 1.63286L6.34744 9.99001L5.51623 12.4837L8.0131 11.6499ZM14.1429 9.64296C14.1429 9.28791 14.4307 9.00009 14.7858 9.00009C15.1408 9.00009 15.4286 9.28791 15.4286 9.64292V16.0715C15.4286 17.1367 14.5652 18.0001 13.5 18.0001H1.92858C0.863453 18.0001 0 17.1367 0 16.0715V3.21436C0 2.14923 0.863453 1.28578 1.92858 1.28578H9.64289C9.99794 1.28578 10.2858 1.57356 10.2858 1.92861C10.2858 2.28367 9.99794 2.57148 9.64289 2.57148H1.92858C1.57352 2.57148 1.28571 2.8593 1.28571 3.21436V16.0715C1.28571 16.4266 1.57352 16.7144 1.92858 16.7144H13.5C13.8551 16.7144 14.1429 16.4266 14.1429 16.0715V9.64296Z" fill="#7147E8"/>
</svg>

<svg xmlns="http://www.w3.org/2000/svg" width="18" height="18" fill="none"><path fill="#7147E8" fill-rule="evenodd" d="M15.54 0a2.46 2.46 0 0 1 1.74 4.201L8.811 12.67a.642.642 0 0 1-.252.155L4.703 14.11a.652.652 0 0 1-.406 0 .643.643 0 0 1-.407-.813L5.176 9.44a.65.65 0 0 1 .155-.252L13.8.721A2.443 2.443 0 0 1 15.539 0ZM8.012 11.65l8.357-8.357a1.17 1.17 0 0 0 0-1.658 1.176 1.176 0 0 0-1.662-.002L6.348 9.99l-.832 2.494 2.497-.834Zm6.13-2.007a.643.643 0 0 1 1.286 0v6.428a1.929 1.929 0 0 1-1.929 1.93H1.929A1.929 1.929 0 0 1 0 16.07V3.215C0 2.15.863 1.286 1.929 1.286h7.714a.643.643 0 1 1 0 1.285H1.929a.643.643 0 0 0-.643.643v12.858c0 .355.288.642.643.642H13.5a.643.643 0 0 0 .643-.642V9.643Z" clip-rule="evenodd"/></svg>
